X: 19007
T: Inspector Rowsome
R: slip jig
M: 9/8
K: Dmixolydian
|:D2A dcB cAG|AcA D2 F GEA|DFA dcB cAG|1 AcA AGA cGE:|2 AcA AEA ^C'de||
|:d2 e fdf edB|^cAA AEA cec|d2 e fed ed^c|A^cA AEA cde|
d2 e fag fef|e^cA AEA ce=c|BGB AFA G2 E|1 FAB ^cec ABc:|2 FAG FDE D3||

